resources/icons/16px/group-item.svg

<svg width="16" height="16" viewBox="0 0 16 16" fill="none" xmlns="http://www.w3.org/2000/svg">
<path d="M8.60198 3.12136C8.21146 3.51189 8.21146 4.14506 8.60198 4.53558L11.4304 7.36401C11.8209 7.75453 12.4541 7.75453 12.8446 7.36401L15.6731 4.53558C16.0636 4.14506 16.0636 3.51189 15.6731 3.12136L12.8446 0.292939C12.4541 -0.0975853 11.8209 -0.0975853 11.4304 0.292939L8.60198 3.12136Z" fill="#111418"/>
<path fill-rule="evenodd" clip-rule="evenodd" d="M0 1.00485C0 0.452564 0.447715 0.0048486 1 0.0048486H6C6.55228 0.0048486 7 0.452564 7 1.00485V6.00485C7 6.55713 6.55228 7.00485 6 7.00485H1C0.447715 7.00485 0 6.55713 0 6.00485V1.00485ZM2 5.00485V2.00485H5V5.00485H2Z" fill="#111418"/>
<path fill-rule="evenodd" clip-rule="evenodd" d="M10 9.00485C9.44772 9.00485 9 9.45256 9 10.0048V15.0048C9 15.5571 9.44771 16.0048 10 16.0048H15C15.5523 16.0048 16 15.5571 16 15.0048V10.0048C16 9.45256 15.5523 9.00485 15 9.00485H10ZM11 11.0048V14.0048H14V11.0048H11Z" fill="#111418"/>
<path fill-rule="evenodd" clip-rule="evenodd" d="M0 10.0048C0 9.45256 0.447715 9.00485 1 9.00485H6C6.55228 9.00485 7 9.45256 7 10.0048V15.0048C7 15.5571 6.55228 16.0048 6 16.0048H1C0.447715 16.0048 0 15.5571 0 15.0048V10.0048ZM2 14.0048V11.0048H5V14.0048H2Z" fill="#111418"/>
</svg>

<svg xmlns="http://www.w3.org/2000/svg" viewBox="0 0 16 16">
  <path d="M8.602 3.121a1 1 0 0 0 0 1.415l2.828 2.828a1 1 0 0 0 1.415 0l2.828-2.828a1 1 0 0 0 0-1.415L12.845.293a1 1 0 0 0-1.415 0zM0 1.005a1 1 0 0 1 1-1h5a1 1 0 0 1 1 1v5a1 1 0 0 1-1 1H1a1 1 0 0 1-1-1zm2 4v-3h3v3zM10 9.005a1 1 0 0 0-1 1v5a1 1 0 0 0 1 1h5a1 1 0 0 0 1-1v-5a1 1 0 0 0-1-1zm1 2v3h3v-3zM0 10.005a1 1 0 0 1 1-1h5a1 1 0 0 1 1 1v5a1 1 0 0 1-1 1H1a1 1 0 0 1-1-1zm2 4v-3h3v3z"/>
</svg>
